X: 603
T:Stony Steps, The
M:4/4
L:1/8
R:reel
N:Posted to the woodenflute mailing list November 2002
Z:Frances Campbell
K:D
A3B AF~F2|ABdf edBd|FA~A2 BAGF|GEAG FD~D2:|
fedc defg|afbf afeg|fedc dBAF|GBAG FD~D2|
fedc defg|afbf afeg|fded fded|faag fedB||

